X:152
T:Humors of Cappa, The
C:Joe Buchanan's Scottish Tome - Page 258.3
I:258 3
Z:Carl Allison
R:Jig
L:1/8
M:6/8
K:D
A | dFF AFA | dFF AFA | BEE BEE | BdB AFA | dFF AFA | dFF AFA | ABd efg | fdd d2 :|
A | dfd cdc | BdB AFA | BEE BEE | BdB AFA | dfd cdc | BdB AFA | ABd efg | fdd d2 :|

